static/images/changenow-logo.svg

<svg height="100" viewBox="0 0 100 100" width="100" xmlns="http://www.w3.org/2000/svg"><g fill="none"><path d="m0 18.57142c0-10.2567 8.31472-18.57142 18.57142-18.57142h62.85718c10.2566 0 18.5714 8.31472 18.5714 18.57142v62.85718c0 10.2566-8.3148 18.5714-18.5714 18.5714h-62.85718c-10.2567 0-18.57142-8.3148-18.57142-18.5714z" fill="#2b2b36"/><path d="m24.811 37.79c-.3944-.477-.8916-.8584-1.4538-1.1154-.5338-.241-1.1104-.3718-1.6956-.3848-.647-.021-1.2916.0888-1.89514.3232-.54232.2132-1.03472.5366-1.44624.9502-.40242.4094-.71362.8996-.913 1.4386-.4176 1.177-.4176 2.4622 0 3.6392.19794.543.5092 1.0374.913 1.4502.41108.414.90362.7376 1.44624.9502.60354.2342 1.24814.344 1.89514.323.5852-.013 1.1618-.1438 1.6956-.3846.5624-.257 1.0594-.6384 1.4538-1.1156l-.9936-.7694c-.2248.335-.5242.6128-.8746.8118-.3892.225-.8322.3394-1.2812.3308-.4634.0202-.9256-.0612-1.3542-.2386-.38728-.1542-.73764-.389-1.02814-.6886-.28848-.318-.50794-.6926-.64448-1.1002-.2944-.893-.2944-1.8574 0-2.7504.13712-.4062.35656-.7794.64448-1.0964.28544-.3096.63328-.5548 1.02034-.7194.4288-.1772.891-.2584 1.3542-.2384.4492-.0086.8922.1058 1.2814.3308.3502.199.6496.477.8746.8118l.9936-.7694zm2.9078 7.3668h1.2162v-4.4316c-.027-.6378.1048-1.2724.3836-1.8464.2008-.3908.4866-.7312.8362-.9964.2588-.2026.5586-.3456.8784-.4194.1728-.0302.3468-.0506.5218-.0614.8952 0 1.509.2564 1.8414.7694.372.6736.5448 1.4394.4986 2.208v4.7778h1.2162v-5.4856c.059-.9034-.223-1.796-.7904-2.5004-.5344-.5746-1.354-.8618-2.4588-.8618-.2894.0008-.577.041-.8556.1194-.2854.078-.5608.189-.8208.3308-.2534.1388-.488.3094-.6982.5078-.202.189-.3752.4068-.5142.6462h-.0382v-6.7166h-1.2162zm17.071-4.3008v.627c.002.3662-.051.7306-.1572 1.081-.0972.328-.2646.631-.4904.8874-.226.2564-.5052.4604-.8178.5974-.3634.156-.7558.232-1.1508.2232-.2454-.0004-.49-.0288-.729-.0846-.232-.0528-.4528-.1466-.652-.277-.1936-.127-.354-.2984-.468-.5002-.1226-.2234-.1836-.4758-.1766-.7308-.0086-.193.0276-.3852.1062-.5616s.1974-.3318.3466-.454c.3196-.2562.6896-.4424 1.0856-.5462.4338-.1192.8784-.194 1.3272-.2232.4604-.0308.844-.0462 1.151-.0462zm-.6062-.9964c-.5114 0-1.0792.0244-1.7032.0732-.5976.0494-1.1858.1788-1.7492.3846-.5212.1808-.9892.4888-1.362.8964-.3846.4618-.5794 1.0532-.5446 1.654-.009.3818.0768.7598.2494 1.1002.162.3088.3884.579.6636.7926.2824.219.604.3822.9476.4808.3588.1052.7308.1584 1.1048.1576.6142.0164 1.2232-.1156 1.776-.3846.5264-.2922.9628-.7232 1.2622-1.2464h.0384c0 .2334.0088.4732.0268.7194.0178.2462.0472.4694.0882.6694h1.1508c-.0358-.2334-.069-.5322-.0996-.8964-.0308-.3642-.041-.7066-.0308-1.027v-3.8468c.0118-.4684-.0758-.934-.257-1.3658-.1582-.3614-.391-.6852-.6828-.95-.2914-.2568-.6342-.4482-1.0052-.5618-.3896-.1232-.7958-.1856-1.2044-.1846118-1.6214 0-2.8362.4180118-3.6444 1.2542118l.7366.8692c.715-.6638 1.657-1.0274 2.6316-1.0154 1.473 0 2.2096.745 2.2096 2.235v.223zm5.854-3.3428c.0256.3206.0474.659.0654 1.0156.0178.3564.0268.6514.0268.8848v6.7396h1.216v-4.4316c-.0268-.6378.105-1.2724.3836-1.8464.2008-.3908.4866-.7312.8364-.9964.2586-.2026.5586-.3456.8784-.4194.1698-.0338.3414-.0582.514-.073.8952 0 1.509.2564 1.8414.7694.372.6736.545 1.4394.4988 2.208v4.7894h1.216v-5.4856c.059-.9034-.223-1.796-.7902-2.5004-.5294-.5746-1.3466-.8618-2.4514-.8618-.2892.0008-.577.041-.8554.1194-.2854.078-.561.189-.821.3308-.2566.1344-.4952.3012-.7096.4962-.202.189-.3752.4068-.5142.6462h-.0382c0-.2334 0-.4642 0-.6924s-.0154-.459-.0462-.6924zm12.7708 2.9274c.1598-.391.3914-.7486.6828-1.054.2892-.3018.6328-.546 1.0126-.7194.3962-.181.827-.273 1.2622-.2692.4676-.0064.9316.0854 1.3618.2692.3892.167.7402.4118 1.032.7194.2836.304.503.6626.6444 1.054.15.4116.2252.8466.2226 1.2848.0186.4664-.0598.9314-.2302 1.3656-.1586.395-.4006.7508-.7098 1.0426-.6238.5864-1.4464.9136-2.3016.9154-.4354.004-.8662-.088-1.2622-.2692-.3798-.1732-.7236-.4174-1.0126-.7194-.2916-.3052-.5232-.6628-.683-1.054-.3312-.823-.3312-1.7428 0-2.5658zm-1.3734 8.4054c.5136.5636 1.1414 1.0108 1.8414 1.3116.7314.2934 1.514.4372 2.3016.4232.8084.0324 1.6136-.1188 2.3554-.4424.549-.2542 1.0312-.6336 1.408-1.1078.3316-.4298.5648-.9276.6828-1.458.1126-.491.1718-.9926.1764-1.4964v-8.563h-1.216v1.4386h-.0384c-.4202-.5846-.9902-1.0444-1.6496-1.331-.278-.1194-.5689997-.2058-.867-.2576-.271-.0474-.5456-.0718-.8208-.0732-.6028-.0064-1.2006.1102-1.757.3424-.5206.2184-.9906.5418-1.381.9502-.3912.4124-.701.8954-.913 1.4234-.2234.5574-.3356 1.1534-.33 1.754-.0054.6026.1134 1.1998.349 1.7542.2224.5246.5486.9984.9592 1.3926.413.3936.8974.7044 1.427.9156.5588.2232 1.1554.3356 1.757.3308.616-.0022 1.2248-.1332 1.7876-.3848.5902-.2686 1.0888-.7044 1.4348-1.254h.0384v1.5388c.0022.4458-.0572.8898-.1766 1.3194-.1068.4004-.3008.7722-.5678 1.0886-.284.3226-.6402.573-1.0396.731-.499.1912-1.0308.2828-1.565.2692-.6648.0106-1.3226-.1384-1.9182-.4346-.5468-.2702-1.0226-.6654-1.3886-1.1542zm13.6798-7.6938c.0006-.3598.086-.7142.2492-1.0348.1666-.3324.3914-.632.6638-.8846.2826-.263.61-.4726.9666-.6194.3644-.1536.7558-.2322 1.151-.2308.3784-.0224.7572.0344 1.1126.1668.3554.1326.6792.3376.9512.6026.2466.2688.4376.584.562.9274.1246.3432.1798.708.163 1.0728zm7.1428795.9964v-.5386c.0031205-.5682-.0902795-1.1328-.2762795-1.6694-.1734-.5044-.4462-.9688-.8016-1.3656-.3608-.3976-.7996-.7158-1.289-.9348-.5516-.2404-1.148-.3598-1.7494-.3502-.5876-.0046-1.17.1118-1.7108.3424-.519.221-.9886.5442-1.381.9502-.3982.4142-.7112.9032-.9208 1.4388-.2244.5758-.3364 1.1896-.3298 1.808-.006.6192.11 1.2336.3414 1.808.2146.5346.5298 1.0232.9284 1.4386.399.4104.8784.7338 1.4078.9502.5636.2308 1.1674.3472 1.7762.3424.6888.0054 1.3708-.139 1.9986-.4232.6714-.325 1.2554-.8064 1.7032-1.404l-.9398-.7694c-.2768.424-.6452.7804-1.078 1.0424-.5058.3114-1.0908.4692-1.684.454-.4112.0042-.8186-.077-1.197-.2386-.74-.3172-1.3322-.9042-1.6572-1.6426-.1736-.3854-.28-.7978-.3146-1.2194z" fill="#fff"/><path d="m18.15152 68.2376h3.09188v-13.3676h.05l8.593 13.3676h3.9282v-17.4298h-3.0958v12.9484h-.046l-8.4396-12.9484h-4.08168zm20.60028-4.9238c.4268 1.0786 1.0746 2.0558 1.901 2.868.8266.8124 1.8138 1.442 2.898 1.8482 1.1802.446 2.433.6678 3.6942.654 1.2766-.0008 2.542-.2382 3.7326-.7002 1.0904-.426 2.0844-1.0668 2.9232-1.885.8292-.8186 1.4822-1.7992 1.918-2.8812.4656-1.1836.6936-2.4478.6714-3.7198.0186-1.297-.2146-2.5854-.6866-3.793-.4316-1.091-1.0848-2.0802-1.9182-2.9044-.833-.8134-1.8296-1.439-2.9232-1.835-1.1964-.4296-2.4618-.6344-3.7326-.6038-1.2612-.0138-2.5138.2078-3.6942.6538-1.0836.411-2.07 1.0438-2.8962 1.858-.8332.829-1.4862 1.8218-1.9182 2.916-.4572 1.216-.676 2.5092-.6444 3.8084-.017 1.2718.2162 2.5346.6866 3.716zm2.9844-6.3512c.2734-.7332.6864-1.406 1.2162-1.981.5276-.5698 1.1678-1.023 1.8796-1.331.7748-.3304 1.6098-.4942 2.4514-.4808.8426-.0112 1.6786.1524 2.4552.4808.7164.306 1.3606.7594 1.8912 1.331.5294.5752.9424 1.248 1.216 1.981.2842.7772.4246 1.5998.4144 2.4274.0092.8804-.1364 1.7554-.4296 2.585-.2672.7546-.6806 1.4488-1.2162 2.0428-.5294.5784-1.1736 1.0398-1.8912 1.354-.7746.3362-1.6112.504-2.4552.4924-.8402.0126-1.6734-.1552-2.4436-.4924-.713-.3164-1.353-.7774-1.8798-1.354-.5358-.5938-.9492-1.288-1.216-2.0428-.2922-.8298-.4364-1.705-.4258-2.585-.007-.8324.1388-1.6592.4296-2.4388zm22.2 11.275h2.8464l4.028-13.2714h.05l4.0432 13.2714h2.9462l5.056-17.4298h-3.1418l-3.4142 12.556h-.0498l-3.8362-12.556h-3.0458l-3.9092 12.556h-.0498l-3.2646-12.556h-3.4026z" fill="#00c26f"/></g></svg>

<?xml version="1.0" encoding="UTF-8"?>
<svg width="100px" height="100px" viewBox="0 0 100 100" version="1.1" xmlns="http://www.w3.org/2000/svg" xmlns:xlink="http://www.w3.org/1999/xlink">
    <!-- Generator: Sketch 63.1 (92452) - https://sketch.com -->
    <title>changenow-logo</title>
    <desc>Created with Sketch.</desc>
    <g id="Page-1" stroke="none" stroke-width="1" fill="none" fill-rule="evenodd">
        <g id="changenow-logo" fill-rule="nonzero">
            <path d="M0,18.57142 C0,8.31472 8.31472,0 18.57142,0 L81.4286,0 C91.6852,0 100,8.31472 100,18.57142 L100,81.4286 C100,91.6852 91.6852,100 81.4286,100 L18.57142,100 C8.31472,100 0,91.6852 0,81.4286 L0,18.57142 Z" id="Path" fill="#2B2B36"></path>
            <path d="M24.811,37.79 C24.4166,37.313 23.9194,36.9316 23.3572,36.6746 C22.8234,36.4336 22.2468,36.3028 21.6616,36.2898 C21.0146,36.2688 20.37,36.3786 19.76646,36.613 C19.22414,36.8262 18.73174,37.1496 18.32022,37.5632 C17.9178,37.9726 17.6066,38.4628 17.40722,39.0018 C16.98962,40.1788 16.98962,41.464 17.40722,42.641 C17.60516,43.184 17.91642,43.6784 18.32022,44.0912 C18.7313,44.5052 19.22384,44.8288 19.76646,45.0414 C20.37,45.2756 21.0146,45.3854 21.6616,45.3644 C22.2468,45.3514 22.8234,45.2206 23.3572,44.9798 C23.9196,44.7228 24.4166,44.3414 24.811,43.8642 L23.8174,43.0948 C23.5926,43.4298 23.2932,43.7076 22.9428,43.9066 C22.5536,44.1316 22.1106,44.246 21.6616,44.2374 C21.1982,44.2576 20.736,44.1762 20.3074,43.9988 C19.92012,43.8446 19.56976,43.6098 19.27926,43.3102 C18.99078,42.9922 18.77132,42.6176 18.63478,42.21 C18.34038,41.317 18.34038,40.3526 18.63478,39.4596 C18.7719,39.0534 18.99134,38.6802 19.27926,38.3632 C19.5647,38.0536 19.91254,37.8084 20.2996,37.6438 C20.7284,37.4666 21.1906,37.3854 21.6538,37.4054 C22.103,37.3968 22.546,37.5112 22.9352,37.7362 C23.2854,37.9352 23.5848,38.2132 23.8098,38.548 L24.8034,37.7786 L24.811,37.79 Z M27.7188,45.1568 L28.935,45.1568 L28.935,40.7252 C28.908,40.0874 29.0398,39.4528 29.3186,38.8788 C29.5194,38.488 29.8052,38.1476 30.1548,37.8824 C30.4136,37.6798 30.7134,37.5368 31.0332,37.463 C31.206,37.4328 31.38,37.4124 31.555,37.4016 C32.4502,37.4016 33.064,37.658 33.3964,38.171 C33.7684,38.8446 33.9412,39.6104 33.895,40.379 L33.895,45.1568 L35.1112,45.1568 L35.1112,39.6712 C35.1702,38.7678 34.8882,37.8752 34.3208,37.1708 C33.7864,36.5962 32.9668,36.309 31.862,36.309 C31.5726,36.3098 31.285,36.35 31.0064,36.4284 C30.721,36.5064 30.4456,36.6174 30.1856,36.7592 C29.9322,36.898 29.6976,37.0686 29.4874,37.267 C29.2854,37.456 29.1122,37.6738 28.9732,37.9132 L28.935,37.9132 L28.935,31.1966 L27.7188,31.1966 L27.7188,45.1568 Z M44.7898,40.856 L44.7898,41.483 C44.7918,41.8492 44.7388,42.2136 44.6326,42.564 C44.5354,42.892 44.368,43.195 44.1422,43.4514 C43.9162,43.7078 43.637,43.9118 43.3244,44.0488 C42.961,44.2048 42.5686,44.2808 42.1736,44.272 C41.9282,44.2716 41.6836,44.2432 41.4446,44.1874 C41.2126,44.1346 40.9918,44.0408 40.7926,43.9104 C40.599,43.7834 40.4386,43.612 40.3246,43.4102 C40.202,43.1868 40.141,42.9344 40.148,42.6794 C40.1394,42.4864 40.1756,42.2942 40.2542,42.1178 C40.3328,41.9414 40.4516,41.786 40.6008,41.6638 C40.9204,41.4076 41.2904,41.2214 41.6864,41.1176 C42.1202,40.9984 42.5648,40.9236 43.0136,40.8944 C43.474,40.8636 43.8576,40.8482 44.1646,40.8482 L44.7898,40.856 Z M44.1836,39.8596 C43.6722,39.8596 43.1044,39.884 42.4804,39.9328 C41.8828,39.9822 41.2946,40.1116 40.7312,40.3174 C40.21,40.4982 39.742,40.8062 39.3692,41.2138 C38.9846,41.6756 38.7898,42.267 38.8246,42.8678 C38.8156,43.2496 38.9014,43.6276 39.074,43.968 C39.236,44.2768 39.4624,44.547 39.7376,44.7606 C40.02,44.9796 40.3416,45.1428 40.6852,45.2414 C41.044,45.3466 41.416,45.3998 41.79,45.399 C42.4042,45.4154 43.0132,45.2834 43.566,45.0144 C44.0924,44.7222 44.5288,44.2912 44.8282,43.768 L44.8666,43.768 C44.8666,44.0014 44.8754,44.2412 44.8934,44.4874 C44.9112,44.7336 44.9406,44.9568 44.9816,45.1568 L46.1324,45.1568 C46.0966,44.9234 46.0634,44.6246 46.0328,44.2604 C46.002,43.8962 45.9918,43.5538 46.002,43.2334 L46.002,39.3866 C46.0138,38.9182 45.9262,38.4526 45.745,38.0208 C45.5868,37.6594 45.354,37.3356 45.0622,37.0708 C44.7708,36.814 44.428,36.6226 44.057,36.509 C43.6674,36.3858 43.2612,36.3234 42.8526,36.3243882 C41.2312,36.3243882 40.0164,36.7424 39.2082,37.5786 L39.9448,38.4478 C40.6598,37.784 41.6018,37.4204 42.5764,37.4324 C44.0494,37.4324 44.786,38.1774 44.786,39.6674 L44.786,39.8904 L44.1836,39.8596 Z M50.0376,36.5168 C50.0632,36.8374 50.085,37.1758 50.103,37.5324 C50.1208,37.8888 50.1298,38.1838 50.1298,38.4172 L50.1298,45.1568 L51.3458,45.1568 L51.3458,40.7252 C51.319,40.0874 51.4508,39.4528 51.7294,38.8788 C51.9302,38.488 52.216,38.1476 52.5658,37.8824 C52.8244,37.6798 53.1244,37.5368 53.4442,37.463 C53.614,37.4292 53.7856,37.4048 53.9582,37.39 C54.8534,37.39 55.4672,37.6464 55.7996,38.1594 C56.1716,38.833 56.3446,39.5988 56.2984,40.3674 L56.2984,45.1568 L57.5144,45.1568 L57.5144,39.6712 C57.5734,38.7678 57.2914,37.8752 56.7242,37.1708 C56.1948,36.5962 55.3776,36.309 54.2728,36.309 C53.9836,36.3098 53.6958,36.35 53.4174,36.4284 C53.132,36.5064 52.8564,36.6174 52.5964,36.7592 C52.3398,36.8936 52.1012,37.0604 51.8868,37.2554 C51.6848,37.4444 51.5116,37.6622 51.3726,37.9016 L51.3344,37.9016 C51.3344,37.6682 51.3344,37.4374 51.3344,37.2092 C51.3344,36.981 51.319,36.7502 51.2882,36.5168 L50.0376,36.5168 Z M62.8084,39.4442 C62.9682,39.0532 63.1998,38.6956 63.4912,38.3902 C63.7804,38.0884 64.124,37.8442 64.5038,37.6708 C64.9,37.4898 65.3308,37.3978 65.766,37.4016 C66.2336,37.3952 66.6976,37.487 67.1278,37.6708 C67.517,37.8378 67.868,38.0826 68.1598,38.3902 C68.4434,38.6942 68.6628,39.0528 68.8042,39.4442 C68.9542,39.8558 69.0294,40.2908 69.0268,40.729 C69.0454,41.1954 68.967,41.6604 68.7966,42.0946 C68.638,42.4896 68.396,42.8454 68.0868,43.1372 C67.463,43.7236 66.6404,44.0508 65.7852,44.0526 C65.3498,44.0566 64.919,43.9646 64.523,43.7834 C64.1432,43.6102 63.7994,43.366 63.5104,43.064 C63.2188,42.7588 62.9872,42.4012 62.8274,42.01 C62.4962,41.187 62.4962,40.2672 62.8274,39.4442 L62.8084,39.4442 Z M61.435,47.8496 C61.9486,48.4132 62.5764,48.8604 63.2764,49.1612 C64.0078,49.4546 64.7904,49.5984 65.578,49.5844 C66.3864,49.6168 67.1916,49.4656 67.9334,49.142 C68.4824,48.8878 68.9646,48.5084 69.3414,48.0342 C69.673,47.6044 69.9062,47.1066 70.0242,46.5762 C70.1368,46.0852 70.196,45.5836 70.2006,45.0798 L70.2006,36.5168 L68.9846,36.5168 L68.9846,37.9554 L68.9462,37.9554 C68.526,37.3708 67.956,36.911 67.2966,36.6244 C67.0186,36.505 66.7276003,36.4186 66.4296,36.3668 C66.1586,36.3194 65.884,36.295 65.6088,36.2936 C65.006,36.2872 64.4082,36.4038 63.8518,36.636 C63.3312,36.8544 62.8612,37.1778 62.4708,37.5862 C62.0796,37.9986 61.7698,38.4816 61.5578,39.0096 C61.3344,39.567 61.2222,40.163 61.2278,40.7636 C61.2224,41.3662 61.3412,41.9634 61.5768,42.5178 C61.7992,43.0424 62.1254,43.5162 62.536,43.9104 C62.949,44.304 63.4334,44.6148 63.963,44.826 C64.5218,45.0492 65.1184,45.1616 65.72,45.1568 C66.336,45.1546 66.9448,45.0236 67.5076,44.772 C68.0978,44.5034 68.5964,44.0676 68.9424,43.518 L68.9808,43.518 L68.9808,45.0568 C68.983,45.5026 68.9236,45.9466 68.8042,46.3762 C68.6974,46.7766 68.5034,47.1484 68.2364,47.4648 C67.9524,47.7874 67.5962,48.0378 67.1968,48.1958 C66.6978,48.387 66.166,48.4786 65.6318,48.465 C64.967,48.4756 64.3092,48.3266 63.7136,48.0304 C63.1668,47.7602 62.691,47.365 62.325,46.8762 L61.435,47.8496 Z M75.1148,40.1558 C75.1154,39.796 75.2008,39.4416 75.364,39.121 C75.5306,38.7886 75.7554,38.489 76.0278,38.2364 C76.3104,37.9734 76.6378,37.7638 76.9944,37.617 C77.3588,37.4634 77.7502,37.3848 78.1454,37.3862 C78.5238,37.3638 78.9026,37.4206 79.258,37.553 C79.6134,37.6856 79.9372,37.8906 80.2092,38.1556 C80.4558,38.4244 80.6468,38.7396 80.7712,39.083 C80.8958,39.4262 80.951,39.791 80.9342,40.1558 L75.1148,40.1558 Z M82.2576795,41.1522 L82.2576795,40.6136 C82.2608,40.0454 82.1674,39.4808 81.9814,38.9442 C81.808,38.4398 81.5352,37.9754 81.1798,37.5786 C80.819,37.181 80.3802,36.8628 79.8908,36.6438 C79.3392,36.4034 78.7428,36.284 78.1414,36.2936 C77.5538,36.289 76.9714,36.4054 76.4306,36.636 C75.9116,36.857 75.442,37.1802 75.0496,37.5862 C74.6514,38.0004 74.3384,38.4894 74.1288,39.025 C73.9044,39.6008 73.7924,40.2146 73.799,40.833 C73.793,41.4522 73.909,42.0666 74.1404,42.641 C74.355,43.1756 74.6702,43.6642 75.0688,44.0796 C75.4678,44.49 75.9472,44.8134 76.4766,45.0298 C77.0402,45.2606 77.644,45.377 78.2528,45.3722 C78.9416,45.3776 79.6236,45.2332 80.2514,44.949 C80.9228,44.624 81.5068,44.1426 81.9546,43.545 L81.0148,42.7756 C80.738,43.1996 80.3696,43.556 79.9368,43.818 C79.431,44.1294 78.846,44.2872 78.2528,44.272 C77.8416,44.2762 77.4342,44.195 77.0558,44.0334 C76.3158,43.7162 75.7236,43.1292 75.3986,42.3908 C75.225,42.0054 75.1186,41.593 75.084,41.1714 L82.2576795,41.1522 Z" id="Shape" fill="#FFFFFF"></path>
            <path d="M18.15152,68.2376 L21.2434,68.2376 L21.2434,54.87 L21.2934,54.87 L29.8864,68.2376 L33.8146,68.2376 L33.8146,50.8078 L30.7188,50.8078 L30.7188,63.7562 L30.6728,63.7562 L22.2332,50.8078 L18.15152,50.8078 L18.15152,68.2376 Z M38.7518,63.3138 C39.1786,64.3924 39.8264,65.3696 40.6528,66.1818 C41.4794,66.9942 42.4666,67.6238 43.5508,68.03 C44.731,68.476 45.9838,68.6978 47.245,68.684 C48.5216,68.6832 49.787,68.4458 50.9776,67.9838 C52.068,67.5578 53.062,66.917 53.9008,66.0988 C54.73,65.2802 55.383,64.2996 55.8188,63.2176 C56.2844,62.034 56.5124,60.7698 56.4902,59.4978 C56.5088,58.2008 56.2756,56.9124 55.8036,55.7048 C55.372,54.6138 54.7188,53.6246 53.8854,52.8004 C53.0524,51.987 52.0558,51.3614 50.9622,50.9654 C49.7658,50.5358 48.5004,50.331 47.2296,50.3616 C45.9684,50.3478 44.7158,50.5694 43.5354,51.0154 C42.4518,51.4264 41.4654,52.0592 40.6392,52.8734 C39.806,53.7024 39.153,54.6952 38.721,55.7894 C38.2638,57.0054 38.045,58.2986 38.0766,59.5978 C38.0596,60.8696 38.2928,62.1324 38.7632,63.3138 L38.7518,63.3138 Z M41.7362,56.9626 C42.0096,56.2294 42.4226,55.5566 42.9524,54.9816 C43.48,54.4118 44.1202,53.9586 44.832,53.6506 C45.6068,53.3202 46.4418,53.1564 47.2834,53.1698 C48.126,53.1586 48.962,53.3222 49.7386,53.6506 C50.455,53.9566 51.0992,54.41 51.6298,54.9816 C52.1592,55.5568 52.5722,56.2296 52.8458,56.9626 C53.13,57.7398 53.2704,58.5624 53.2602,59.39 C53.2694,60.2704 53.1238,61.1454 52.8306,61.975 C52.5634,62.7296 52.15,63.4238 51.6144,64.0178 C51.085,64.5962 50.4408,65.0576 49.7232,65.3718 C48.9486,65.708 48.112,65.8758 47.268,65.8642 C46.4278,65.8768 45.5946,65.709 44.8244,65.3718 C44.1114,65.0554 43.4714,64.5944 42.9446,64.0178 C42.4088,63.424 41.9954,62.7298 41.7286,61.975 C41.4364,61.1452 41.2922,60.27 41.3028,59.39 C41.2958,58.5576 41.4416,57.7308 41.7324,56.9512 L41.7362,56.9626 Z M63.9362,68.2376 L66.7826,68.2376 L70.8106,54.9662 L70.8606,54.9662 L74.9038,68.2376 L77.85,68.2376 L82.906,50.8078 L79.7642,50.8078 L76.35,63.3638 L76.3002,63.3638 L72.464,50.8078 L69.4182,50.8078 L65.509,63.3638 L65.4592,63.3638 L62.1946,50.8078 L58.792,50.8078 L63.9362,68.2376 Z" id="Shape" fill="#00C26F"></path>
        </g>
    </g>
</svg>
